X:1
T:We Shall Be Like Him
T:George Coles Stebbins
T:We Shall Be Like Him
T:Public Domain
T:Public Domain
T:Public Domain
C:George Coles Stebbins
Z:Public Domain
%%score ( 1 2 ) ( 3 4 )
L:1/8
M:4/4
K:C
V:1 treble 
V:2 treble 
V:3 bass 
V:4 bass 
V:1
 [EG]2 [^D^F]>[EG] [=FA]2 [EG][CE] | [EG][EA][EB][Ec] [Fc]2 [FB]2 | %2
w: 1.~“We shall be like Him,” the|Son of God most ho- ly,|
w: 2.~“We shall be like Him,” this|prom- ise lights the fu- ture,|
w: 3.~“We shall be like Him,” the|glo- ri- fied Re- deem- er;|
 [DF]2 [^CE]>[DF] [FB]2 [FA][FA] | [FA][B,D][CE][DF] [EG]4 | [EG]2 [^D^F]>[EG] [=FA]2 [EG][CE] | %5
w: “We shall be like Him,” sweet|prom- ise of His grace!|Christ- ian, press for- ward! some|
w: Shed- ding soft ra- diance up-|on our path- way dim.|He who re- deemed us, the|
w: His lov- ing- kind- ness this|add- ed grace be- stows!|We shall be- hold Him no|
 [EG][EA][GB][Gc] [Ge]2 [Gd]2 | [Gd]2 [G^c]>[Gd] [Ge]2 [Gd][DB] | [Gd][Gc][^FA][FB] (G2 E=F) || %8
w: bright, some glad to- mor- row|“We shall be like Him,” for|we shall see His face. * *|
w: Lamb once slain on Cal- v’ry,|Shines now in glo- ry, and|we shall be like Him. * *|
w: more with cloud- ed vi- sion,|Bright- er and bright- er to|faith the pros- pect grows. * *|
[M:6/8]"^Refrain" [EG]4 [CE][Ec] | [Fc]3 [FB]3 | [Fd]4 [FA][DB] | [^DA]3 [EG]3 | [Ec]4 [DB][CA] | %13
w: shall be like|Him, we|shall be like|Him, For|we shall see|
w: |||||
w: |||||
 [Dd]3 [DB]3 | ([^FA]3- AB)A | (G3 F3) | [EG]4 [CE][Ec] | [Fc]3 [FA]3 | [Af]4 [Ge][Fd] | %19
w: Him as|He * * is;|shall *|like Him, we|shall be|like Him, For|
w: ||||||
w: ||||||
 [Ed]3 [Ec]3 | (F3 A)[GB][FA] | [EG]3 [Ge]3 | [Fd]3- [Fd]2 [Ec] | [Ec]6 |] %24
w: we shall|see * Him as|is. *|||
w: |||||
w: |||||
V:2
 x8 | x8 | x8 | x8 | x8 | x8 | x8 | x4 G4 ||[M:6/8] x6 | x6 | x6 | x6 | x6 | x6 | x3 F2 A | d6 | %16
w: |||||||We|||||||* We|be|
 x6 | x6 | x6 | x6 | c4 x2 | x6 | x6 | x6 |] %24
w: ||||He||||
V:3
 [C,C]2 [C,C]>[C,C] [C,C]2 [C,C][C,C] | [C,C][C,C][C,G,][C,G,] [D,G,]2 [D,G,]2 | %2
w: ~ ~ ~ ~ ~ ~|~ ~ ~ ~ ~ ~|
 [G,,G,]2 [G,,G,]>[G,,B,] [G,,D]2 [G,,C][G,,C] | [G,,B,][F,G,][E,G,][D,G,] [C,C]4 | %4
w: ~ ~ ~ ~ ~ ~|~ ~ ~ ~ ~|
 [C,C]2 [C,C]>[C,C] [C,C]2 [C,C][C,C] | [C,C][C,C][E,C][F,C] [G,C]2 [G,B,]2 | %6
w: ~ ~ ~ ~ ~ ~|~ ~ ~ ~ ~ ~|
 [G,B,]2 [G,^A,]>[G,B,] [G,C]2 [G,B,]G, | [D,B,][D,E][D,C][D,D] (B,2 CD) || %8
w: ~ ~ ~ ~ ~ ~|~ ~ ~ ~ We * *|
[M:6/8] [C,C]3 [C,C]2 [C,G,] | [D,G,]3 [G,D]3 | [G,B,]3 [G,B,]2 [G,,G,] | [C,^F,]3 [C,G,]3 | %12
w: be like Him,|we shall|be like Him,|For we|
 [A,,A,]3 ([A,,A,][B,,^G,])[C,A,] | [B,,G,]3 [D,G,]3 | [D,C]3 (CD[^F,C]) | (G,3 G,,3) | %16
w: shall see * Him|as He|is; We * *|be *|
 [C,C]3 [C,C]2 [C,G,] | [D,G,]3 [G,D]3 | [G,B,]3 [G,B,]2 [G,B,] | [C,_B,]3 [C,B,]3 | %20
w: Him, we shall|be like|Him, For we|shall see|
 [F,A,]3 [F,A,]2 [F,C] | [G,B,]3 C3 | [G,-C]3 [G,B,]2 [C,C] | [C,C]6 |] %24
w: Him as He|is. *|||
V:4
 x8 | x8 | x8 | x8 | x8 | x8 | x7 G, | x4 G,,4 ||[M:6/8] x6 | x6 | x6 | x6 | x6 | x6 | x3 D,2 x | %15
w: ||||||~|shall|||||||shall|
 B,6 | x6 | x6 | x6 | x6 | x6 | x3 C3 | x6 | x6 |] %24
w: like|||||||||

